!!!OTL: Der schwatzhafte Junggeselle Es sassen drei Halunken
!!!ARE: Europa, Mitteleuropa, Deutschland (BRD), Franken
!!!YOR: 6, S. 312
!!    ????
!!!SCT: Q0139R
!!!YEM: Copyright 1995, estate of Helmut Schaffrath.
**kern
*ICvox
*Ivox
!! Irregular meter.
*MX
*k[f#]
*G:
{8d
=1
4g
8f#
8e
=2
4d
8g
8b
=3
4a
4g
4r}
{8d
=4
4g
8f#
8e
=5
4d
8g
8b
=6
4a
4g
4r}
{4dd
=7
8b
8b
8b
8b
4.b
8dd
=8
8ee
8dd
8cc
8b
4a}
{8g
=9
8f#
8a
8a
8a
4.dd
8cc
=10
8b
8b
8b
8b
4g}
==
!!!AGN: Ballade, Indiskretion, verweigerter Beischlaf
!! Zwei- und dreistimmig notiert, Oberstimme kodiert.
!!!ONB: ESAC (Essen Associative Code) Database: BALLADE
!!!AMT: irregular
!!!AIN: vox
!!!EED: Helmut Schaffrath
!!!EEV: 1.0
*-
